X: 19040
T: Invergarry Castle
R: jig
M: 6/8
K: Adorian
B|A>A A BAG|A>A A a3|g>e g g2e|dBG G2B|
A>A A BAG|A>A A a3|g>f e e<g B|A>A A A2:|
B|A>a a a>g e|gaa a>g e|g>e g g2e|dBG G2B|
[1A>a a a>g e|gaa a>g e|g>f e e<g B|A>A A A2:|
[2A>A A BAG|A>A A a3|g>f e e<g B|A>A A A2||

